!!!OTL: Loss of the Philosophy
!!!ONM: 128.
**kern
*clefG2
!Modal -- Conklin/Pearce 
*k[b-]
*d:
*M6/8
*MM60
{8c
=1
4d
8d
4f
8g
=2
4a
8cc
4cc}
{8d
=3
(8f
8e)
8d
4c
8c
=4
4.c
4r}
{8cc
=5
4dd
8cc
4g
8dd
=6
4ff
8dd
4cc}
{8cc
=7
(4dd
8cc)
4ff
8a
=8
4.g
4r}
{16cc
16cc
=9
4dd
8cc
4a
16ff
16ff
=10
8gg
8gg
8ff
4dd}
{8a
=11
4cc
8a
4ff
8a
=12
4.g}
{4c
8c
=13
4f
8g
8a
8cc
8cc
=14
4dd
4cc}
{8g
8e
=15
4d
8g
8e
8d
8d
=16
[4.d
8d]
8r}
==
*-
!!!CNT: Folksongs of Maritime Canada
!!!MRD: 1928///-1932///
!!!OCL: Helen Creighton
!!!YOR: Songs and Ballads from Nova Scotia
!!!PPR: J.M. Dent & Sons, Limited
!!!PPP: Toronto, Canada
!!!PDT: 1932///
!!!reprint: Dover Publications, 1992: ISBN 0-486-21703-5
!!!ENC1: Craig Stuart Sapp (music and bibliographic data)                       
!!!ENC2: Marcus Pearce (phrase markings and key designations)                   
!!!ENC3: Darrell Conklin (phrase markings and key designations)   
!!!END: 2002/04/10/
!!!EEV: 2004/06/05
!!!MPN: Mr. Ben Henneberry
!!!PPG: 275
!!!EFL: 130/152
!!!ARE: Canada; Nova Scotia
!!!verses: 8
!!!VTS: 4090046198
